svg/help-buoy-sharp.svg

<?xml version="1.0" encoding="UTF-8" standalone="no"?>
<svg
   xmlns:dc="http://purl.org/dc/elements/1.1/"
   xmlns:cc="http://creativecommons.org/ns#"
   xmlns:rdf="http://www.w3.org/1999/02/22-rdf-syntax-ns#"
   xmlns:svg="http://www.w3.org/2000/svg"
   xmlns="http://www.w3.org/2000/svg"
   xmlns:sodipodi="http://sodipodi.sourceforge.net/DTD/sodipodi-0.dtd"
   xmlns:inkscape="http://www.inkscape.org/namespaces/inkscape"
   class="ionicon"
   viewBox="0 0 512 512"
   version="1.1"
   id="svg6"
   sodipodi:docname="help-buoy-sharp.svg"
   inkscape:version="1.0.2 (e86c8708, 2021-01-15)">
  <metadata
     id="metadata12">
    <rdf:RDF>
      <cc:Work
         rdf:about="">
        <dc:format>image/svg+xml</dc:format>
        <dc:type
           rdf:resource="http://purl.org/dc/dcmitype/StillImage" />
      </cc:Work>
    </rdf:RDF>
  </metadata>
  <defs
     id="defs10" />
  <sodipodi:namedview
     pagecolor="#ffffff"
     bordercolor="#666666"
     borderopacity="1"
     objecttolerance="10"
     gridtolerance="10"
     guidetolerance="10"
     inkscape:pageopacity="0"
     inkscape:pageshadow="2"
     inkscape:window-width="689"
     inkscape:window-height="480"
     id="namedview8"
     showgrid="false"
     inkscape:zoom="1.3027344"
     inkscape:cx="256"
     inkscape:cy="256"
     inkscape:window-x="44"
     inkscape:window-y="25"
     inkscape:window-maximized="0"
     inkscape:current-layer="svg6" />
  <title
     id="title2">Help Buoy</title>
  <path
     style="color:#000000;font-style:normal;font-variant:normal;font-weight:normal;font-stretch:normal;font-size:medium;line-height:normal;font-family:sans-serif;font-variant-ligatures:normal;font-variant-position:normal;font-variant-caps:normal;font-variant-numeric:normal;font-variant-alternates:normal;font-variant-east-asian:normal;font-feature-settings:normal;font-variation-settings:normal;text-indent:0;text-align:start;text-decoration:none;text-decoration-line:none;text-decoration-style:solid;text-decoration-color:#000000;letter-spacing:normal;word-spacing:normal;text-transform:none;writing-mode:lr-tb;direction:ltr;text-orientation:mixed;dominant-baseline:auto;baseline-shift:baseline;text-anchor:start;white-space:normal;shape-padding:0;shape-margin:0;inline-size:0;clip-rule:nonzero;display:inline;overflow:visible;visibility:visible;isolation:auto;mix-blend-mode:normal;color-interpolation:sRGB;color-interpolation-filters:linearRGB;solid-color:#000000;solid-opacity:1;vector-effect:none;fill:#000000;fill-opacity:1;fill-rule:nonzero;stroke-width:1;stroke-linecap:butt;stroke-linejoin:miter;stroke-miterlimit:4;stroke-dasharray:none;stroke-dashoffset:0;stroke-opacity:1;color-rendering:auto;image-rendering:auto;shape-rendering:auto;text-rendering:auto;enable-background:accumulate;stop-color:#000000;stop-opacity:1;stroke:none;opacity:1"
     d="M 256,32 C 132.29,32 32,132.29 32,256 32,379.71 132.29,480 256,480 379.71,480 480,379.71 480,256 480,132.29 379.71,32 256,32 Z m -64,224 c 0,-25.88556 15.59319,-49.22243 39.50789,-59.12785 23.91466,-9.90539 51.44087,-4.42846 69.74465,13.87531 18.30377,18.30378 23.7807,45.82999 13.87531,69.74465 C 305.22243,304.40681 281.88556,320 256,320 220.65378,320 192,291.34622 192,256 Z M 429.24,193.71 342.91,199 c -7.82544,-11.87525 -17.98475,-22.03456 -29.86,-29.86 l 5.24,-86.33 c 51.64177,18.68989 92.31011,59.35823 111,111 z M 125.89,125.89 c 19.1405,-19.21325 42.30305,-33.943434 67.82,-43.13 l 5.29,86.33 c -11.89825,7.83473 -22.07527,18.01175 -29.91,29.91 l -86.33,-5.24 c 9.17998,-25.53483 23.91054,-48.71506 43.13,-67.87 z m -43.13,192.4 86.33,-5.24 c 7.84003,11.8802 18.0167,22.03986 29.91,29.86 l -5.24,86.33 c -51.63117,-18.67906 -92.29768,-59.32725 -111,-110.95 z m 303.35,67.82 c -19.1405,19.21325 -42.30305,33.94343 -67.82,43.13 l -5.24,-86.33 c 11.87525,-7.82544 22.03456,-17.98475 29.86,-29.86 l 86.33,5.24 c -9.18657,25.51695 -23.91675,48.6795 -43.13,67.82 z"
     id="path4" />
</svg>

<svg xmlns="http://www.w3.org/2000/svg" width="512" height="512" viewBox="0 0 512 512"><title>ionicons-v5-i</title><path d="M256,32C132.29,32,32,132.29,32,256S132.29,480,256,480,480,379.71,480,256,379.71,32,256,32ZM192,256a64,64,0,1,1,64,64A64,64,0,0,1,192,256Zm237.24-62.29L342.91,199a104.86,104.86,0,0,0-29.86-29.86l5.24-86.33a185,185,0,0,1,111,111ZM125.89,125.89a183.44,183.44,0,0,1,67.82-43.13L199,169.09A104.86,104.86,0,0,0,169.09,199l-86.33-5.24A183.44,183.44,0,0,1,125.89,125.89ZM82.76,318.29l86.33-5.24A104.86,104.86,0,0,0,199,342.91l-5.24,86.33A185,185,0,0,1,82.76,318.29Zm303.35,67.82a183.44,183.44,0,0,1-67.82,43.13l-5.24-86.33a104.86,104.86,0,0,0,29.86-29.86l86.33,5.24A183.44,183.44,0,0,1,386.11,386.11Z"/></svg>
